pim-2023/src/assets/modeIcon.svg

<svg width="129" height="93" viewBox="0 0 129 93" fill="#D2D2D2" xmlns="http://www.w3.org/2000/svg">
<path d="M96.9312 80.7303C99.1899 80.3393 101.408 79.7405 103.556 78.9415C115.684 74.3866 131.621 59.271 128.218 46.9902C123.848 31.5205 97.3102 36.4373 88.5855 38.0538C76.9526 40.2091 62.704 29.9378 42.9569 15.6953C37.0884 11.4185 30.657 6.80936 23.6851 1.98852C22.6122 1.26136 21.3354 0.890763 20.0371 0.929684C18.7387 0.968605 17.4853 1.41505 16.4557 2.20523C11.8496 5.37622 8.01106 9.53006 5.22034 14.3635C2.42961 19.197 0.757153 24.5881 0.325033 30.1433C0.178089 35.0324 1.12245 39.8912 3.09004 44.3695C5.05764 48.8478 7.99945 52.834 11.7034 56.0408C20.1658 64.3979 26.0438 74.9966 28.6426 86.584C28.7859 88.2071 29.569 89.7066 30.8207 90.7547C32.0724 91.8027 33.6907 92.3139 35.322 92.1766C36.9532 92.0392 38.4645 91.2645 39.5255 90.0218C40.5864 88.779 41.1107 87.1694 40.9836 85.5449C40.9776 76.9664 41.9582 68.4138 43.9062 60.0541C52.801 63.9324 61.2412 68.7688 69.0761 74.4769C73.0673 77.3074 77.5855 79.318 82.3678 80.3916C87.15 81.4652 92.1006 81.5804 96.9312 80.7303Z" fill="#F8F8F8"/>
</svg>

<svg width="129" height="93" viewBox="0 0 129 93" fill="#D2D2D2" xmlns="http://www.w3.org/2000/svg"><path d="M96.931 80.73a37.207 37.207 0 0 0 6.625-1.788c12.128-4.555 28.065-19.671 24.662-31.952-4.37-15.47-30.908-10.553-39.632-8.936-11.633 2.155-25.882-8.116-45.63-22.359A948.916 948.916 0 0 0 23.687 1.99a6.188 6.188 0 0 0-7.23.217A37.573 37.573 0 0 0 5.22 14.362a37.352 37.352 0 0 0-4.895 15.78A32.905 32.905 0 0 0 3.09 44.37a32.993 32.993 0 0 0 8.613 11.67 61.993 61.993 0 0 1 16.94 30.544 6.144 6.144 0 0 0 2.178 4.17 6.213 6.213 0 0 0 8.705-.733 6.156 6.156 0 0 0 1.458-4.476 111.975 111.975 0 0 1 2.922-25.49 133.053 133.053 0 0 1 25.17 14.422 36.977 36.977 0 0 0 13.292 5.915 37.12 37.12 0 0 0 14.563.338Z"/></svg>
